remix/Finance/safe-fill.svg

<svg viewBox="0 0 24 24" fill="currentColor" xmlns="http://www.w3.org/2000/svg"><path d="M18.0049 19.9998H6.00488V21.9998H4.00488V19.9998H3.00488C2.4526 19.9998 2.00488 19.5521 2.00488 18.9998V3.99979C2.00488 3.4475 2.4526 2.99979 3.00488 2.99979H21.0049C21.5572 2.99979 22.0049 3.4475 22.0049 3.99979V18.9998C22.0049 19.5521 21.5572 19.9998 21.0049 19.9998H20.0049V21.9998H18.0049V19.9998ZM11.0049 13.8738V16.9998H13.0049V13.8738C14.7301 13.4297 16.0049 11.8636 16.0049 9.99979C16.0049 7.79065 14.214 5.99979 12.0049 5.99979C9.79574 5.99979 8.00488 7.79065 8.00488 9.99979C8.00488 11.8636 9.27966 13.4297 11.0049 13.8738ZM12.0049 11.9998C10.9003 11.9998 10.0049 11.1044 10.0049 9.99979C10.0049 8.89522 10.9003 7.99979 12.0049 7.99979C13.1095 7.99979 14.0049 8.89522 14.0049 9.99979C14.0049 11.1044 13.1095 11.9998 12.0049 11.9998Z"/></svg>

<svg viewBox="0 0 24 24" xmlns="http://www.w3.org/2000/svg"><path fill="none" d="M0 0h24v24H0Z"/><path d="M18 20H6v2H4v-2H3v0c-.56 0-1-.45-1-1V4v0c0-.56.44-1 1-1h18v0c.55 0 1 .44 1 1v15 0c0 .55-.45 1-1 1h-1v2h-2v-2Zm-7-6.13v3.12h2v-3.13 0c2.13-.56 3.41-2.75 2.86-4.89 -.46-1.76-2.05-2.99-3.87-3v0c-2.21-.01-4.01 1.78-4.01 3.99 -.01 1.82 1.23 3.42 3 3.87Zm1-1.88v0c-1.11 0-2-.9-2-2 0-1.11.89-2 2-2v0c1.1 0 2 .89 2 2 0 1.1-.9 2-2 2Z"/></svg>
